X:1
T:Strange Dances
T:Strange Dances
T:Technology
C:Technonogy
L:1/8
M:4/4
K:G
V:1 treble nm="Piano" snm="Pno."
V:1
"Em" z4 gfed |"G" B6 Bc |"C" B4 E2 D2 |"A" ^C4 B4 |"Em" z4 gfed |"G" B6 Bc |"C" d2 c2 B2 AG | %7
"A" A2 GE- E2 DG/F/ |"Em" E4 gfed |"G" B6 Bc |"C" d2 c2 B2 AG |"A" A2 GE- E2 DG/F/ |"Em" E4 gfed | %13
"G" B6 Bc |"C" B4 E2 D2 |"A" ^C4 B4- | B8 ||"Em" z4 B2 B2 |:"C" B4 E2 B2 |"D" A4 A2 A2 | %20
"A" A4 G2 F2 |"Em" E4 B2 B2 |"C" B4 A2 G2 |"A" A2 G2 E4- |"Aother" E8- |"Em" E4 B2 B2 | %26
"C" B4 E2 B2 |"D" A4 A2 A2 ||1"A" A4 G2 F2 ||"Em" E4 E2 F2 |"C" G4 E2 C2 |"A" F2 E2 E4- | %32
"Aother" E8- |"Em" E4 B2 B2 :|2"B" c4 B2 A2 ||"C" G4 E2 F2 |"Am" G4 E2 C2 |"B" G2 F6- | F8 |] %39
"Am" z2 A2 A2 Bc |"B" B2 F2 F2 GF |"Em" E2 E2 B2 AG |"C" F2 E2 E4 |"Am" z2 A2 A2 Bc | %44
"B" B2 F2 F2 GA |"Am" G2 EG c3 A/G/ |"B" F8- | F8 |]"Am" c4 E2 A2 |"B" F8- |"Em" F4 (3B2 A2 G2 | %51
"C" F4 E4 |"Am" c4 E2 A2 |"B" F8 |"Em" z3 E (3B2 A2 G2 |"C" F4 E2 E2 |"Am" c4 E2 A2 |"B" F8 | %58
"Em" F4 (3B2 A2 G2 |"C" F4 E4 |"Am" c4 E2 A2 |"B" F6 EF |:"C" G2 G2 c2 G2 |"B" G4 F4- :| F8 |] %65
"Em" z4 gfed |"G" B6 Bc |"C" B4 E2 D2 |"A" ^C4 B4 |"Em" z4 gfed |"G" B6 Bc |"C" d2 c2 B2 AG | %72
"A" A2 GE- E2 DG/F/ |"Em" E4 gfed |"G" B6 Bc |"C" d2 c2 B2 AG |"A" A2 GE- E2 DG/F/ |"Em" E4 gfed | %78
"G" B6 Bc |"C" B4 E2 D2 |"A" ^C4 B4- | B8 ||"E" E8- | E8 |] %84

